X:481
T:Polska # 481
T: efter Melker Andersson
M:3/4
L:1/32
K: G
Q: 120
d4(^cdef g4)d4 B4G4 | B4d4 c4A4 F4D4| G4G2F2 G4A4 B4c4| e4d2e2 d8 d8| d4(^cdef g4)d4 B4G4 |
B4d4 c4A4 F4D4| G4G2F2 G4A4 B4c4| A2B2A2F2 G16 :: d6e2 d8 B8 | d6e2 d8 B6d2 |
e6d2 e4f4 g4f2g2| a4f4 d16| d6B2 G2D2G2D2 G2D2G2B2| c6A2 F2D2F2D2 F2D2F2A2|
d6B2 G2D2G2D2 G2D2G2B2| c6A2 F2D2F2D2 F2D2F2A2| G4G2F2 G4A4 B4c4 | (A2B2)A2F2 G16 :|

